Adwaita++-Light/panel/24/steam_tray_mono.svg

<svg height="24" width="24" xmlns="http://www.w3.org/2000/svg">
  <path d="m11.999998 4a8 8 0 0 0 -7.9277347 6.986328l4.1269532 2.382813a2.5 2.5 0 0 1 1.3007814-.369141 2.5 2.5 0 0 1 .4121091.03516l2.097656-3.269535a3 3 0 0 1 2.990235-2.765625 3 3 0 0 1 3 3 3 3 0 0 1 -3 3 3 3 0 0 1 -.423828-.0332l-2.597657 2.21875a2.5 2.5 0 0 1 .02149.31445 2.5 2.5 0 0 1 -2.5000001 2.5 2.5 2.5 0 0 1 -2.5000002-2.5 2.5 2.5 0 0 1 .050781-.484375l-2.9375-1.695312a8 8 0 0 0 7.8867183 6.679687 8 8 0 0 0 8-8 8 8 0 0 0 -7.999999-8zm-7.9277347 6.986328a8 8 0 0 0 -.052734.615234 8 8 0 0 1 .052734-.615234zm10.9277347-2.986328a2 2 0 0 0 -2 2 2 2 0 0 0 2 2 2 2 0 0 0 2-2 2 2 0 0 0 -2-2zm0 1a1 1 0 0 1 1 1 1 1 0 0 1 -1 1 1 1 0 0 1 -1-1 1 1 0 0 1 1-1zm-11.0000003 3a8 8 0 0 0 .039063.724609 8 8 0 0 1 -.039063-.724609zm5.4609372 2a1.5 1.5 0 0 0 -.1484372.01367l.1875002.107422c.495564.286114.6715311.903034.3945311 1.382812s-.8989666.635724-1.3945313.34961l-.4980468-.287108a1.5 1.5 0 0 0 1.498047 1.433594 1.5 1.5 0 0 0 1.5000001-1.5 1.5 1.5 0 0 0 -1.5000001-1.5 1.5 1.5 0 0 0 -.0390599 0z" fill="#444"/>
</svg>

<svg xmlns="http://www.w3.org/2000/svg" width="24" height="24" version="1.1">
 <defs>
  <style id="current-color-scheme" type="text/css">
   .ColorScheme-Text { color:#444444; } .ColorScheme-Highlight { color:#4285f4; }
  </style>
 </defs>
 <path style="fill:currentColor" class="ColorScheme-Text" d="m 11.999998,4 a 8,8 0 0 0 -7.9277347,6.986328 l 4.1269532,2.382813 A 2.5,2.5 0 0 1 9.4999979,13 2.5,2.5 0 0 1 9.912107,13.03516 L 12.009763,9.765625 A 3,3 0 0 1 14.999998,7 a 3,3 0 0 1 3,3 3,3 0 0 1 -3,3 3,3 0 0 1 -0.423828,-0.0332 l -2.597657,2.21875 A 2.5,2.5 0 0 1 12.000003,15.5 2.5,2.5 0 0 1 9.5000029,18 2.5,2.5 0 0 1 7.0000027,15.5 2.5,2.5 0 0 1 7.0507837,15.015625 l -2.9375,-1.695312 A 8,8 0 0 0 12.000002,20 a 8,8 0 0 0 8,-8 8,8 0 0 0 -7.999999,-8 z m -7.9277347,6.986328 a 8,8 0 0 0 -0.052734,0.615234 8,8 0 0 1 0.052734,-0.615234 z M 14.999998,8 a 2,2 0 0 0 -2,2 2,2 0 0 0 2,2 2,2 0 0 0 2,-2 2,2 0 0 0 -2,-2 z m 0,1 a 1,1 0 0 1 1,1 1,1 0 0 1 -1,1 1,1 0 0 1 -1,-1 1,1 0 0 1 1,-1 z M 3.9999977,12 A 8,8 0 0 0 4.0390607,12.724609 8,8 0 0 1 3.9999977,12 Z m 5.4609372,2 a 1.5,1.5 0 0 0 -0.1484372,0.01367 l 0.1875002,0.107422 c 0.495564,0.286114 0.6715311,0.903034 0.3945311,1.382812 -0.277,0.479778 -0.8989666,0.635724 -1.3945313,0.34961 L 8.0019509,15.566406 A 1.5,1.5 0 0 0 9.4999979,17 1.5,1.5 0 0 0 10.999998,15.5 1.5,1.5 0 0 0 9.4999979,14 1.5,1.5 0 0 0 9.460938,14 Z"/>
</svg>
